packages/icons/general/Loading.svg

<svg width="20" height="20" viewBox="0 0 20 20" xmlns="http://www.w3.org/2000/svg">
<g>
        <path
            fill-rule="evenodd"
            clip-rule="evenodd"
            d="M10 1.18506C10.3452 1.18506 10.625 1.46488 10.625 1.81006V5.14339C10.625 5.48857 10.3452 5.76839 10 5.76839C9.65482 5.76839 9.375 5.48857 9.375 5.14339V1.81006C9.375 1.46488 9.65482 1.18506 10 1.18506Z"
            fill="currentColor"
        />
        <path
            fill-rule="evenodd"
            clip-rule="evenodd"
            d="M10 14.5183C10.3452 14.5183 10.625 14.7981 10.625 15.1433V18.4766C10.625 18.8218 10.3452 19.1016 10 19.1016C9.65482 19.1016 9.375 18.8218 9.375 18.4766V15.1433C9.375 14.7981 9.65482 14.5183 10 14.5183Z"
            fill="currentColor"
        />
        <path
            fill-rule="evenodd"
            clip-rule="evenodd"
            d="M3.66548 3.80977C3.90956 3.56569 4.30529 3.56569 4.54936 3.80977L6.9077 6.1681C7.15177 6.41218 7.15177 6.80791 6.9077 7.05198C6.66362 7.29606 6.26789 7.29606 6.02381 7.05198L3.66548 4.69365C3.4214 4.44957 3.4214 4.05384 3.66548 3.80977Z"
            fill="currentColor"
        />
        <path
            fill-rule="evenodd"
            clip-rule="evenodd"
            d="M13.0913 13.2348C13.3353 12.9907 13.7311 12.9907 13.9751 13.2348L16.3335 15.5931C16.5776 15.8372 16.5776 16.233 16.3335 16.477C16.0894 16.7211 15.6937 16.7211 15.4496 16.477L13.0913 14.1187C12.8472 13.8746 12.8472 13.4789 13.0913 13.2348Z"
            fill="currentColor"
        />
        <path
            fill-rule="evenodd"
            clip-rule="evenodd"
            d="M1.04102 10.1433C1.04102 9.79813 1.32084 9.51831 1.66602 9.51831H4.99935C5.34453 9.51831 5.62435 9.79813 5.62435 10.1433C5.62435 10.4885 5.34453 10.7683 4.99935 10.7683H1.66602C1.32084 10.7683 1.04102 10.4885 1.04102 10.1433Z"
            fill="currentColor"
        />
        <path
            fill-rule="evenodd"
            clip-rule="evenodd"
            d="M14.375 10.1433C14.375 9.79813 14.6548 9.51831 15 9.51831H18.3333C18.6785 9.51831 18.9583 9.79813 18.9583 10.1433C18.9583 10.4885 18.6785 10.7683 18.3333 10.7683H15C14.6548 10.7683 14.375 10.4885 14.375 10.1433Z"
            fill="currentColor"
        />
        <path
            fill-rule="evenodd"
            clip-rule="evenodd"
            d="M6.9077 13.2348C7.15177 13.4789 7.15177 13.8746 6.9077 14.1187L4.54936 16.477C4.30529 16.7211 3.90956 16.7211 3.66548 16.477C3.4214 16.233 3.4214 15.8372 3.66548 15.5931L6.02381 13.2348C6.26789 12.9907 6.66362 12.9907 6.9077 13.2348Z"
            fill="currentColor"
        />
        <path
            fill-rule="evenodd"
            clip-rule="evenodd"
            d="M16.3335 3.80977C16.5776 4.05384 16.5776 4.44957 16.3335 4.69365L13.9751 7.05198C13.7311 7.29606 13.3353 7.29606 13.0913 7.05198C12.8472 6.80791 12.8472 6.41218 13.0913 6.1681L15.4496 3.80977C15.6937 3.56569 16.0894 3.56569 16.3335 3.80977Z"
            fill="currentColor"
        />
    </g>
</svg>

<svg xmlns="http://www.w3.org/2000/svg" width="20" height="20">
    <path fill="currentColor" fill-rule="evenodd" d="M10 1.185c.345 0 .625.28.625.625v3.333a.625.625 0 1 1-1.25 0V1.81c0-.345.28-.625.625-.625Zm0 13.333c.345 0 .625.28.625.625v3.334a.625.625 0 1 1-1.25 0v-3.334c0-.345.28-.625.625-.625ZM3.665 3.81a.625.625 0 0 1 .884 0l2.359 2.358a.625.625 0 0 1-.884.884L3.665 4.694a.625.625 0 0 1 0-.884Zm9.426 9.425a.625.625 0 0 1 .884 0l2.359 2.358a.625.625 0 1 1-.884.884l-2.359-2.358a.625.625 0 0 1 0-.884Zm-12.05-3.092c0-.345.28-.625.625-.625h3.333a.625.625 0 1 1 0 1.25H1.666a.625.625 0 0 1-.625-.625Zm13.334 0c0-.345.28-.625.625-.625h3.333a.625.625 0 1 1 0 1.25H15a.625.625 0 0 1-.625-.625Zm-7.467 3.092a.625.625 0 0 1 0 .884l-2.359 2.358a.625.625 0 1 1-.884-.884l2.359-2.358a.625.625 0 0 1 .884 0Zm9.426-9.425a.625.625 0 0 1 0 .884l-2.359 2.358a.625.625 0 1 1-.884-.884L15.45 3.81a.625.625 0 0 1 .884 0Z" clip-rule="evenodd"/>
</svg>
